X:1
T:Title
%%score ( 1 2 ) ( 3 4 )
L:1/8
Q:1/4=90
M:3/4
K:Bb
V:1 treble nm="Grand Piano, Soprano"
V:2 treble 
V:3 bass nm="Choir Pad, Marin, CMD"
V:4 bass 
V:1
 [B,D]/[CE]/ [DF]2 [DB] [Ec]2 | [Fd] [EG]2 [FA] [GB]2 | z2 z2 .B2 | [Fd][Fc]- [Fc]3- [Fc]/ z/ | %4
w: By~W.~Irving~Hartshorn,~1880 * * * *||||
 [FA]/[EG]/ [DF]2 [DB] [Ec]2 | [Fd] [Gf]2 [Ge] [EG]2 | [EG] [DF]2 [DB] [CA][DB] | %7
w: |||
 [Ec][DB]- [DB]3- [DB]/ z/ | [CA]/[DB]/ [Ec]2 [Ec] [Ec][DB] | [Ec] [Fd]2 [Ge] [Fd]2 | %10
w: |||
 [Fd] [Ge]2 [Ge] [Fd]2 | [FB][Fc]- [Fc]3- [Fc]/ z/ | [FA]/[EG]/ [DF]2 [DB] [Ec]2 | %13
w: |||
 [Fd] [Gf]2 [Ge] [EG]2 | z2 z2 .A2 | [EA][DB]- [DB]4- | [DB]2 z2 z2 |] %17
w: ||||
V:2
 x6 | x6 | [EG] [DF]2 [DB] F-[Fc] | x6 | x6 | x6 | x6 | x6 | x6 | x6 | x6 | x6 | x6 | x6 | %14
 [Gc] [FB]2 [FB] F-[FG] | x6 | x6 |] %17
V:3
 [B,,F,] [B,,B,]2 [B,,B,] [B,,B,]2 | [B,,B,] [E,B,]2 [E,B,] [E,B,]2 | z2 z2 B,2 | %3
 [B,,B,][F,A,]- [F,A,]3- [F,A,]/ z/ | .C2 z2 z2 | [B,,B,] [E,B,]2 [E,B,] [E,B,]2 | z2 z2 .C2 | %7
 [F,A,][B,,B,]- [B,,B,]3- [B,,B,]/ z/ | z2 z2 .A,2 | [F,A,] [B,,B,]2 [B,,B,] [B,,B,]2 | %10
 [B,,B,] [E,B,]2 [E,B,] [B,,B,]2 | [D,B,][F,A,]- [F,A,]3- [F,A,]/ z/ | .C2 z2 z2 | %13
 [B,,B,] [E,B,]2 [E,B,] [E,B,]2 | z2 z2 .C2 | [F,C][B,,B,]- [B,,B,]4- | [B,,B,]2 z2 z2 |] %17
V:4
 x6 | x6 | [E,B,] [B,,B,]2 [B,,B,] D,C, | x6 | F,/-[F,A,]/ [B,,B,]2 [B,,B,] [B,,B,]2 | x6 | %6
 [E,B,] [F,B,]2 [F,B,] F,-[F,B,] | x6 | F, [F,A,]2 [F,A,] F,-[F,B,] | x6 | x6 | x6 | %12
 F,/-[F,A,]/ [B,,B,]2 [B,,B,] [B,,B,]2 | x6 | [E,E] [F,D]2 [F,D] F,-[F,B,] | x6 | x6 |] %17

